lib/brands/icons/adobe-illustrator.svg

<svg xmlns="http://www.w3.org/2000/svg" fill="none" aria-hidden="true" viewBox="0 0 48 48"><g id="adobe-illustrator-Icon"><g id="Group"><rect width="36" height="36" x="6" y="6" fill="#330000" rx="8"/><g id="Union"><path fill="#FF9A00" d="M32.1303 19.4589C31.6316 19.4733 31.148 19.2867 30.7853 18.9567C30.4377 18.598 30.2564 18.1246 30.2715 17.6367C30.2564 17.1489 30.4528 16.6898 30.8155 16.3598C31.1782 16.0298 31.6618 15.8576 32.1605 15.8576C32.7499 15.8576 33.2032 16.0298 33.5357 16.3598C33.8681 16.7041 34.0495 17.1633 34.0344 17.6367C34.0495 18.1246 33.8681 18.598 33.5055 18.9567C33.1579 19.3011 32.6441 19.4876 32.1303 19.4589Z"/><path fill="#FF9A00" d="M30.4377 31.9128V20.865C30.4377 20.7215 30.4982 20.6641 30.6342 20.6641H33.6264C33.7624 20.6641 33.8228 20.7359 33.8228 20.865V31.9128C33.8228 32.0706 33.7624 32.1424 33.6264 32.1424H30.6644C30.5133 32.1424 30.4377 32.0563 30.4377 31.9128Z"/><path fill="#FF9A00" fill-rule="evenodd" d="M24.0455 28.5554H18.4238L17.2753 31.9272C17.2451 32.0563 17.1242 32.1424 16.9882 32.128H14.1471C13.9809 32.128 13.9356 32.042 13.9809 31.8698L18.847 18.5693C18.8602 18.5275 18.8734 18.4845 18.887 18.4403C18.92 18.3327 18.9552 18.2179 18.9981 18.0959C19.0585 17.7946 19.0887 17.4789 19.0887 17.1633C19.0736 17.0915 19.1341 17.0198 19.2096 17.0054H23.1236C23.2445 17.0054 23.305 17.0485 23.3201 17.1202L28.8359 31.8985C28.8813 32.0563 28.8359 32.128 28.6848 32.128H25.5264C25.4206 32.1424 25.3149 32.0706 25.2846 31.9702L24.0455 28.5554ZM19.3003 25.6428H23.1387C23.0481 25.3415 22.9272 24.9828 22.7912 24.6098C22.6552 24.2224 22.5192 23.8063 22.3831 23.3759C22.3076 23.1535 22.2358 22.9347 22.164 22.7159C22.0922 22.4971 22.0205 22.2783 21.9449 22.0559C21.7938 21.6111 21.6578 21.195 21.5369 20.7789C21.4834 20.6011 21.4328 20.4289 21.3839 20.2624C21.3224 20.0526 21.2634 19.8517 21.2044 19.6598H21.1742C21.0382 20.2767 20.872 20.8937 20.6604 21.5107C20.5741 21.7729 20.4877 22.0393 20.4006 22.3083C20.2589 22.7456 20.1149 23.19 19.9652 23.6341C19.7537 24.3659 19.527 25.0402 19.3003 25.6428Z" clip-rule="evenodd"/></g></g></g></svg>

<svg xmlns="http://www.w3.org/2000/svg" fill="none" aria-hidden="true" viewBox="0 0 48 48"><rect width="36" height="36" x="6" y="6" fill="#300" rx="8"/><g fill="#FF9A00"><path d="M32.13 19.459a1.925 1.925 0 0 1-1.345-.502 1.81 1.81 0 0 1-.514-1.32 1.645 1.645 0 0 1 .544-1.277c.363-.33.847-.502 1.345-.502.59 0 1.043.172 1.376.502.332.344.514.803.498 1.277a1.76 1.76 0 0 1-.529 1.32 1.83 1.83 0 0 1-1.375.502Zm-1.692 12.454V20.865c0-.143.06-.2.196-.2h2.992c.136 0 .197.07.197.2v11.048c0 .158-.06.23-.197.23h-2.962c-.15 0-.226-.087-.226-.23Z"/><path fill-rule="evenodd" d="M24.046 28.555h-5.622l-1.149 3.372a.263.263 0 0 1-.287.201h-2.84c-.167 0-.212-.086-.167-.258l4.866-13.3.04-.13c.033-.107.068-.222.111-.344a4.8 4.8 0 0 0 .09-.933c-.014-.072.046-.143.122-.158h3.914c.12 0 .181.044.196.115l5.516 14.778c.045.158 0 .23-.151.23h-3.159a.228.228 0 0 1-.241-.158l-1.24-3.415ZM19.3 25.643h3.839a18.87 18.87 0 0 0-.348-1.033 41.972 41.972 0 0 1-.408-1.234l-.219-.66c-.072-.219-.144-.438-.22-.66a31.8 31.8 0 0 1-.407-1.277c-.054-.178-.104-.35-.153-.517-.062-.21-.12-.41-.18-.602h-.03a16.903 16.903 0 0 1-.514 1.85l-.26.798a97.16 97.16 0 0 1-.435 1.326 27.081 27.081 0 0 1-.665 2.009Z" clip-rule="evenodd"/></g></svg>
